F[BALLADE
CUT[Die Mordeltern
    Es waren einst zwei Bauernsoehn',]
CNR[die hatten Lust in Krieg zu gehn,]
REG[Mitteleuropa, Schweiz]
SRC[4, S. 310
    1910 gedruckt in Basel]
KEY[Q0085c 08  G 3/4 2/4]
MEL[1-71  2_2_34  5_0
    1-71  2_2_34  5_0
    111  6_6_53  +1
    531  255_4-7  1_0
    111  6_6_53  +1
    531  255_4-7  1_0 //] >>
FCT[Ballade, Habgier, Mord, Reue, Selbstmord]
